X: 21243
T: WEST END HORNPIPE
C: By J. Shaw, North Shields
R: hornpipe
B: K\"ohler's Violin Repository, v.2, 1885 p.124 #3
F: http://www.archive.org/details/klersviolinrepos02rugg
Z: 2012 John Chambers <jc:trillian.mit.edu>
M: C|
L: 1/8
K: F
(A>B) |\
{d}(c>=B)c>A (d>c)_B>A | (B>c)A>B G3(A | B>d)G>B (A>c)f>a | (3gag (3fed c2(A>B) |
{d}(c>=B)c>A (d>c)_B>A | (B>c)A>B G2A>B | (c>a)g>f (e>b)a>g | g2f2f2 :|
|: u((3cde) |\
(f>e)f>g (f>c)A>c | (f>e)f>g (f>c)A>c | (d>f)e>g (f>a)g>f | (e>d)c>=B c2d>e |
(f>e)d>c B2b>a | (g>f)e>d (d>c)B>A | (G>A)B>c (d>B)G>E | G2F2F2 :|

%%sep 2 1 500

